X:705
T:Mrs. Gordon of Belsies
R:Slow Strathspey
C:William Marshall
B:The Athole Collection
M:C
L:1/8
Q:1/4=140
K:F
c|A<d d>c A<F F>A|c>dc>A G2 G>c|A<d d>c A<F F>e|~f>ga>c A2A:|
|:G|F<f f>g f<a a>g|~f>dc>A G2 G>A|F<f f>g f<a a>g|f>c d<f A2A:|
d|c<A A>d c<A A>d|c<A A>F G2 G>d|c<A A<d c<A A>a|~f>c d<f A2 A>d|
c<A A<d c<A A>d|c<A A>F G2 G>A|F>GA>d c<A A>a|~f>c d<f A2A||
g|f>ga>g f<d d>f|c<A A>F G2 G>c|f>ga>g f<d d>f|c<A f>g a2 ag//a/|
b>ga>g f<d d>f|c<A A>F G2 G>A|F>GA>d c<A A>a|f>cd>f A2A||
|:G|F>GA>f c<A A<f|c<A A>F G2 G>A|F>GA>f c<A A>a|f>cd>f A2A:|
f/g/|a>fg>e f>c d<f|c<A A>F G2 Gf/g/|a>f g<e f>c d>f|c<A f>g a2 af/g/|
a>fg>e f>c d<f|c<A A>F G2 G>A|F>GA>d c<A A>a|f>cd>f A2A||

